packages/sources/icons/src/vitamix/task-fill.svg

<svg width="16" height="16" viewBox="0 0 16 16" xmlns="http://www.w3.org/2000/svg"><path fill-rule="evenodd" clip-rule="evenodd" d="M14 14.0053V1.99465C14 1.62931 13.7033 1.33331 13.338 1.33331H2.662C2.2977 1.33585 2.00291 1.63035 2 1.99465V14.0053C2.00037 14.3707 2.29665 14.6666 2.662 14.6666H13.338C13.7023 14.6641 13.9971 14.3696 14 14.0053ZM5.87873 7.09734L7.52873 8.74801L10.3574 5.91934L11.3001 6.86201L7.52873 10.6333L4.93606 8.04068L5.87873 7.09734Z"/></svg>

<svg width="16" height="16" xmlns="http://www.w3.org/2000/svg"><path fill-rule="evenodd" clip-rule="evenodd" d="M14 14.005V1.995a.662.662 0 0 0-.662-.662H2.662A.667.667 0 0 0 2 1.995v12.01c0 .366.297.662.662.662h10.676a.667.667 0 0 0 .662-.662ZM5.879 7.097l1.65 1.651 2.828-2.829.943.943-3.771 3.771-2.593-2.592.943-.944Z"/></svg>
